tools/download-figma-icons/icons/solid/light-bulb.svg

<svg width="24" height="24" viewBox="0 0 24 24" fill="none" xmlns="http://www.w3.org/2000/svg">
<path fill-rule="evenodd" clip-rule="evenodd" d="M16.3273 13.8072H16.2448C15.8623 13.8072 15.5391 13.5297 15.4948 13.139L15.2998 11.354L13.8674 11.1973L9.0442 16.0197C8.8942 16.1622 8.70671 16.2372 8.51171 16.2372C8.31672 16.2372 8.12922 16.1622 7.97922 16.0197C7.68673 15.7272 7.68673 15.2472 7.97922 14.9547L12.8016 10.1323L12.6441 8.69906L10.8592 8.50482C10.4467 8.45982 10.1467 8.08483 10.1917 7.67233C10.2367 7.25984 10.6192 6.97485 11.0242 7.0116L13.4091 7.27484C13.7541 7.31234 14.0316 7.58983 14.0691 7.94233L14.2723 9.72729L16.0573 9.92979C16.409 9.96729 16.6865 10.2448 16.724 10.5898L16.9873 12.9747C17.0315 13.3865 16.7398 13.7615 16.3273 13.8072ZM6.85422 20.797L3.20104 17.1446L4.10102 16.2446L7.75345 19.8971L6.85422 20.797ZM5.45926 22.1845C5.04602 22.6038 4.37178 22.6038 3.95104 22.1845L1.81358 20.0471C1.39359 19.6271 1.39359 18.9514 1.81358 18.5321L2.14358 18.2014L5.79675 21.8538L5.45926 22.1845ZM21.2478 2.75244C19.4696 0.97498 17.1072 0 14.594 0C13.3347 0 12.1198 0.239995 10.994 0.704986C9.86905 1.16923 8.83407 1.85996 7.94909 2.74494C5.53339 5.15989 5.18164 7.83734 5.0009 10.8373C4.9109 12.3147 4.8434 13.3797 4.23666 13.9872L1.61097 16.6122L0.749235 17.4746C-0.249745 18.4721 -0.249745 20.1063 0.749235 21.1038L2.88594 23.242C3.38843 23.7445 4.04917 23.9995 4.70915 23.9995C5.36914 23.9995 6.02163 23.7445 6.52412 23.2495L10.0115 19.7546C10.5815 19.1846 11.579 19.0946 13.1547 19.0046C16.1472 18.8239 18.8246 18.4789 21.2478 16.0572C23.0253 14.2797 23.9995 11.9248 23.9995 9.40481C23.9995 6.89236 23.0253 4.52991 21.2478 2.75244Z" fill="black"/>
</svg>

<svg xmlns="http://www.w3.org/2000/svg" width="24" height="24" fill="none" viewBox="0 0 24 24"><path fill="currentColor" fill-rule="evenodd" d="M16.327 13.807h-.082a.75.75 0 0 1-.75-.668l-.195-1.785-1.433-.157-4.823 4.823a.77.77 0 0 1-.532.217.77.77 0 0 1-.533-.217.756.756 0 0 1 0-1.065l4.823-4.823-.158-1.433-1.785-.194a.757.757 0 0 1-.667-.833c.045-.412.427-.697.832-.66l2.385.263a.75.75 0 0 1 .66.667l.203 1.785 1.785.203a.75.75 0 0 1 .667.66l.263 2.385a.753.753 0 0 1-.66.832m-9.473 6.99-3.653-3.652.9-.9 3.652 3.652zM5.46 22.184a1.06 1.06 0 0 1-1.508 0l-2.137-2.137a1.07 1.07 0 0 1 0-1.515l.33-.33 3.653 3.652zM21.248 2.753A9.35 9.35 0 0 0 14.594 0c-1.26 0-2.474.24-3.6.705a9.4 9.4 0 0 0-3.045 2.04C5.533 5.16 5.182 7.837 5.001 10.837c-.09 1.478-.158 2.543-.764 3.15L1.61 16.612l-.862.863a2.57 2.57 0 0 0 0 3.629l2.137 2.138a2.575 2.575 0 0 0 3.638.008l3.488-3.495c.57-.57 1.567-.66 3.143-.75 2.992-.181 5.67-.526 8.093-2.948A9.33 9.33 0 0 0 24 9.405a9.34 9.34 0 0 0-2.752-6.653" clip-rule="evenodd"/></svg>
